X:34
T:All Round My Hat,A New Dance. JBs.034
S:Jas.Blackshaw MS, 1837, N.Shropshire
Z:VMP.Tony Weatherall 2006
M:2/4
L:1/8
Q:1/2=70
A:North Shropshire
R:Country Dance
K:C
G|c2d>B|c2e>f|g2f>e|d>B G2|c2 d>B|c2 e>f|gg a>^f|g2z:|!
|:e/f/|g>ga>g|f>ed>e|f>fg>c|d>B G2|c2 d>B|c2 e>f|g>gf>d|c2z:|

